src/pos-icons/airport.svg

<svg height="24" viewBox="0 0 24 24" width="24" xmlns="http://www.w3.org/2000/svg"><path d="m14.97 5.92c-.14-.51-.67-.82-1.18-.68l-3.4.91-4.44-4.12-1.23.33 2.66 4.59-3.19.85-1.26-.98-.93.25 1.66 2.88 10.62-2.84c.52-.15.82-.68.69-1.19m6.03 4.08-1 2h-5l-1-2 1-1h2v-2h1v2h2zm1 10v2h-20v-2h13v-7h5v7z"/></svg>

<?xml version="1.0" encoding="UTF-8"?><!DOCTYPE svg PUBLIC "-//W3C//DTD SVG 1.1//EN" "http://www.w3.org/Graphics/SVG/1.1/DTD/svg11.dtd"><svg xmlns="http://www.w3.org/2000/svg" xmlns:xlink="http://www.w3.org/1999/xlink" version="1.1" id="mdi-airport" width="24" height="24" viewBox="0 0 24 24"><path d="M14.97,5.92C14.83,5.41 14.3,5.1 13.79,5.24L10.39,6.15L5.95,2.03L4.72,2.36L7.38,6.95L4.19,7.8L2.93,6.82L2,7.07L3.66,9.95L14.28,7.11C14.8,6.96 15.1,6.43 14.97,5.92M21,10L20,12H15L14,10L15,9H17V7H18V9H20L21,10M22,20V22H2V20H15V13H20V20H22Z" /></svg>
